outputs/icons/action/user_settings_sharp.svg

<svg xmlns="http://www.w3.org/2000/svg" width="1200" height="1200" fill="none"><g fill="#000" clip-path="url(#a)"><path d="M500 600c110.455 0 200-89.545 200-200 0-110.457-89.545-200-200-200-110.457 0-200 89.543-200 200 0 110.455 89.543 200 200 200M533.5 651c-11-.5-22-1-33.5-1-121 0-234 33.5-330.5 91-44 26-69.5 75-69.5 126.5V1000h463c-39.5-56.5-63-125.5-63-200 0-53.5 12.5-103.5 33.5-149"/><path fill-rule="evenodd" d="M1034.69 769.815c1.435 10.025 2.81 19.645 2.81 30.185s-1.375 20.16-2.81 30.185l-.19 1.315 57 50.5-50 86.5L969 944q-24 20.25-54 31.5l-15 74.5H800l-15-74.5q-30-11.25-54-31.5l-72.5 24.5-50-86.5 57-50.5c-.065-.44-.125-.875-.19-1.315-1.435-10.02-2.81-19.645-2.81-30.185s1.375-20.165 2.81-30.185c.065-.44.125-.875.19-1.315l-57-50.5 50-86.5L731 656q24-20.25 54-31.5l15-74.5h100l15 74.5q30 11.25 54 31.5l72.5-24.5 50 86.5-57 50.5zM750 800c0 55 45 100 100 100s100-45 100-100-45-100-100-100-100 45-100 100"/></g><defs><clipPath id="a"><path fill="#fff" d="M0 0h1200v1200H0z"/></clipPath></defs></svg>

<svg width="1200" height="1200" viewBox="0 0 1200 1200" fill="none" xmlns="http://www.w3.org/2000/svg"><g clip-path="url(#clip0_117_767)"><path d="M500 600C610.455 600 700 510.455 700 400C700 289.543 610.455 200 500 200C389.543 200 300 289.543 300 400C300 510.455 389.543 600 500 600Z" fill="black"/><path d="M533.5 651C522.5 650.5 511.5 650 500 650C379 650 266 683.5 169.5 741C125.5 767 100 816 100 867.5V1000H563C523.5 943.5 500 874.5 500 800C500 746.5 512.5 696.5 533.5 651Z" fill="black"/><path fill-rule="evenodd" d="M1034.69 769.815C1036.125 779.84 1037.5 789.46 1037.5 800C1037.5 810.54 1036.125 820.16 1034.69 830.185L1034.5 831.5L1091.5 882L1041.5 968.5L969 944C953 957.5 935 968 915 975.5L900 1050H800L785 975.5C765 968 747 957.5 731 944L658.5 968.5L608.5 882L665.5 831.5C665.435 831.06 665.375 830.625 665.31 830.185C663.875 820.165 662.5 810.54 662.5 800C662.5 789.46 663.875 779.835 665.31 769.815C665.375 769.375 665.435 768.94 665.5 768.5L608.5 718L658.5 631.5L731 656C747 642.5 765 632 785 624.5L800 550H900L915 624.5C935 632 953 642.5 969 656L1041.5 631.5L1091.5 718L1034.5 768.5L1034.69 769.815ZM750 800C750 855 795 900 850 900C905 900 950 855 950 800C950 745 905 700 850 700C795 700 750 745 750 800Z" fill="black"/></g><defs><clipPath id="clip0_117_767"><path width="24" fill="white" d="M0 0H1200V1200H0V0z"/></clipPath></defs></svg>
